(Generated with: DXF2GCODE, Version: Py3.5.1 PyQt5.6, Date: $Date$)
(Created from file: C:/Work/Keyboard/Things/Tablet_GKOS/Battery_Cover.dxf)
(Time: Sat Sep  5 11:50:34 2020)
G21 (Units in millimeters)  G90 (Absolute programming) G17 (XY plane)
G92 X0.00 Y0.00 Z0.00 (Reset Zero)
G00 Z15.00
S12000
M03 (Spindle on)
G00 Z15.000 
(*** LAYER: 0 ***)
(S6000)
(* SHAPE Nr: 4 *)
G00 X31.705 Y105.075
(Profile start)
G00 Z1.000 
F20.0
G01 Z-1.300
F400.0
G01 X31.662 Y105.088
G01 X31.622 Y105.109
G01 X31.588 Y105.138
G01 X31.559 Y105.172
G01 X31.538 Y105.212
G01 X31.525 Y105.255
G01 X31.520 Y105.300
G01 X31.525 Y105.345
G01 X31.538 Y105.388
G01 X31.559 Y105.428
G01 X31.588 Y105.462
G01 X31.622 Y105.491
G01 X31.662 Y105.512
G01 X31.705 Y105.525
G01 X31.750 Y105.530
G01 X31.795 Y105.525
G01 X31.838 Y105.512
G01 X31.878 Y105.491
G01 X31.912 Y105.462
G01 X31.941 Y105.428
G01 X31.962 Y105.388
G01 X31.975 Y105.345
G01 X31.980 Y105.300
G01 X31.975 Y105.255
G01 X31.962 Y105.212
G01 X31.941 Y105.172
G01 X31.912 Y105.138
G01 X31.878 Y105.109
G01 X31.838 Y105.088
G01 X31.795 Y105.075
G01 X31.750 Y105.070
G01 X31.705 Y105.075
F20.0
G01 Z-2.600
F400.0
G01 X31.662 Y105.088
G01 X31.622 Y105.109
G01 X31.588 Y105.138
G01 X31.559 Y105.172
G01 X31.538 Y105.212
G01 X31.525 Y105.255
G01 X31.520 Y105.300
G01 X31.525 Y105.345
G01 X31.538 Y105.388
G01 X31.559 Y105.428
G01 X31.588 Y105.462
G01 X31.622 Y105.491
G01 X31.662 Y105.512
G01 X31.705 Y105.525
G01 X31.750 Y105.530
G01 X31.795 Y105.525
G01 X31.838 Y105.512
G01 X31.878 Y105.491
G01 X31.912 Y105.462
G01 X31.941 Y105.428
G01 X31.962 Y105.388
G01 X31.975 Y105.345
G01 X31.980 Y105.300
G01 X31.975 Y105.255
G01 X31.962 Y105.212
G01 X31.941 Y105.172
G01 X31.912 Y105.138
G01 X31.878 Y105.109
G01 X31.838 Y105.088
G01 X31.795 Y105.075
G01 X31.750 Y105.070
G01 X31.705 Y105.075
F20.0
G01 Z-3.800
F400.0
G01 X31.662 Y105.088
G01 X31.622 Y105.109
G01 X31.588 Y105.138
G01 X31.559 Y105.172
G01 X31.538 Y105.212
G01 X31.525 Y105.255
G01 X31.520 Y105.300
G01 X31.525 Y105.345
G01 X31.538 Y105.388
G01 X31.559 Y105.428
G01 X31.588 Y105.462
G01 X31.622 Y105.491
G01 X31.662 Y105.512
G01 X31.705 Y105.525
G01 X31.750 Y105.530
G01 X31.795 Y105.525
G01 X31.838 Y105.512
G01 X31.878 Y105.491
G01 X31.912 Y105.462
G01 X31.941 Y105.428
G01 X31.962 Y105.388
G01 X31.975 Y105.345
G01 X31.980 Y105.300
G01 X31.975 Y105.255
G01 X31.962 Y105.212
G01 X31.941 Y105.172
G01 X31.912 Y105.138
G01 X31.878 Y105.109
G01 X31.838 Y105.088
G01 X31.795 Y105.075
G01 X31.750 Y105.070
G01 X31.705 Y105.075
F20.0
G01 Z1.000
G00 Z5.000 
(Profile end)
(* SHAPE Nr: 1 *)
G00 X31.134 Y102.203
(Profile start)
G00 Z1.000 
G01 Z-1.300
F400.0
G01 X30.542 Y102.383
G01 X29.996 Y102.675
G01 X29.517 Y103.067
G01 X29.125 Y103.546
G01 X28.833 Y104.092
G01 X28.653 Y104.684
G01 X28.593 Y105.300
G01 X28.653 Y105.916
G01 X28.833 Y106.508
G01 X29.125 Y107.054
G01 X29.517 Y107.533
G01 X29.996 Y107.925
G01 X30.542 Y108.217
G01 X31.134 Y108.397
G01 X31.750 Y108.457
G01 X32.366 Y108.397
G01 X32.958 Y108.217
G01 X33.504 Y107.925
G01 X33.983 Y107.533
G01 X34.375 Y107.054
G01 X34.667 Y106.508
G01 X34.847 Y105.916
G01 X34.907 Y105.300
G01 X34.847 Y104.684
G01 X34.667 Y104.092
G01 X34.375 Y103.546
G01 X33.983 Y103.067
G01 X33.504 Y102.675
G01 X32.958 Y102.383
G01 X32.366 Y102.203
G01 X31.750 Y102.143
G01 X31.134 Y102.203
F20.0
G01 Z1.000
G00 Z5.000 
(Profile end)
(* SHAPE Nr: 3 *)
G00 X31.525 Y6.255
(Profile start)
G00 Z1.000 
G01 Z-1.300
F400.0
G01 X31.520 Y6.300
G01 X31.525 Y6.345
G01 X31.538 Y6.388
G01 X31.559 Y6.428
G01 X31.588 Y6.462
G01 X31.622 Y6.491
G01 X31.662 Y6.512
G01 X31.705 Y6.525
G01 X31.750 Y6.530
G01 X31.795 Y6.525
G01 X31.838 Y6.512
G01 X31.878 Y6.491
G01 X31.912 Y6.462
G01 X31.941 Y6.428
G01 X31.962 Y6.388
G01 X31.975 Y6.345
G01 X31.980 Y6.300
G01 X31.975 Y6.255
G01 X31.962 Y6.212
G01 X31.941 Y6.172
G01 X31.912 Y6.138
G01 X31.878 Y6.109
G01 X31.838 Y6.088
G01 X31.795 Y6.075
G01 X31.750 Y6.070
G01 X31.705 Y6.075
G01 X31.662 Y6.088
G01 X31.622 Y6.109
G01 X31.588 Y6.138
G01 X31.559 Y6.172
G01 X31.538 Y6.212
G01 X31.525 Y6.255
F20.0
G01 Z-2.600
F400.0
G01 X31.520 Y6.300
G01 X31.525 Y6.345
G01 X31.538 Y6.388
G01 X31.559 Y6.428
G01 X31.588 Y6.462
G01 X31.622 Y6.491
G01 X31.662 Y6.512
G01 X31.705 Y6.525
G01 X31.750 Y6.530
G01 X31.795 Y6.525
G01 X31.838 Y6.512
G01 X31.878 Y6.491
G01 X31.912 Y6.462
G01 X31.941 Y6.428
G01 X31.962 Y6.388
G01 X31.975 Y6.345
G01 X31.980 Y6.300
G01 X31.975 Y6.255
G01 X31.962 Y6.212
G01 X31.941 Y6.172
G01 X31.912 Y6.138
G01 X31.878 Y6.109
G01 X31.838 Y6.088
G01 X31.795 Y6.075
G01 X31.750 Y6.070
G01 X31.705 Y6.075
G01 X31.662 Y6.088
G01 X31.622 Y6.109
G01 X31.588 Y6.138
G01 X31.559 Y6.172
G01 X31.538 Y6.212
G01 X31.525 Y6.255
F20.0
G01 Z-3.800
F400.0
G01 X31.520 Y6.300
G01 X31.525 Y6.345
G01 X31.538 Y6.388
G01 X31.559 Y6.428
G01 X31.588 Y6.462
G01 X31.622 Y6.491
G01 X31.662 Y6.512
G01 X31.705 Y6.525
G01 X31.750 Y6.530
G01 X31.795 Y6.525
G01 X31.838 Y6.512
G01 X31.878 Y6.491
G01 X31.912 Y6.462
G01 X31.941 Y6.428
G01 X31.962 Y6.388
G01 X31.975 Y6.345
G01 X31.980 Y6.300
G01 X31.975 Y6.255
G01 X31.962 Y6.212
G01 X31.941 Y6.172
G01 X31.912 Y6.138
G01 X31.878 Y6.109
G01 X31.838 Y6.088
G01 X31.795 Y6.075
G01 X31.750 Y6.070
G01 X31.705 Y6.075
G01 X31.662 Y6.088
G01 X31.622 Y6.109
G01 X31.588 Y6.138
G01 X31.559 Y6.172
G01 X31.538 Y6.212
G01 X31.525 Y6.255
F20.0
G01 Z1.000
G00 Z5.000 
(Profile end)
(* SHAPE Nr: 2 *)
G00 X28.653 Y5.684
(Profile start)
G00 Z1.000 
G01 Z-1.300
F400.0
G01 X28.593 Y6.300
G01 X28.653 Y6.916
G01 X28.833 Y7.508
G01 X29.125 Y8.054
G01 X29.517 Y8.533
G01 X29.996 Y8.925
G01 X30.542 Y9.217
G01 X31.134 Y9.397
G01 X31.750 Y9.457
G01 X32.366 Y9.397
G01 X32.958 Y9.217
G01 X33.504 Y8.925
G01 X33.983 Y8.533
G01 X34.375 Y8.054
G01 X34.667 Y7.508
G01 X34.847 Y6.916
G01 X34.907 Y6.300
G01 X34.847 Y5.684
G01 X34.667 Y5.092
G01 X34.375 Y4.546
G01 X33.983 Y4.067
G01 X33.504 Y3.675
G01 X32.958 Y3.383
G01 X32.366 Y3.203
G01 X31.750 Y3.143
G01 X31.134 Y3.203
G01 X30.542 Y3.383
G01 X29.996 Y3.675
G01 X29.517 Y4.067
G01 X29.125 Y4.546
G01 X28.833 Y5.092
G01 X28.653 Y5.684
F20.0
G01 Z1.000
G00 Z5.000 
(Profile end)
(* SHAPE Nr: 0 *)
G00 X0.291 Y-0.146
(Profile start)
G00 Z1.000 
G01 Z-1.300
F400.0
G02 X-0.146 Y0.291 I0.881 J1.318
G01 X-1.013 Y1.589
G02 X-1.250 Y2.160 I1.318 J0.881
G01 X-1.555 Y3.691
G02 X-1.585 Y4.000 I1.555 J0.309
G01 X-1.585 Y107.600
G02 X-1.555 Y107.909 I1.585 J0.000
G01 X-1.250 Y109.440
G02 X-1.013 Y110.011 I1.555 J-0.309
G01 X-0.146 Y111.309
G02 X0.291 Y111.746 I1.318 J-0.881
G01 X1.589 Y112.613
G02 X2.160 Y112.850 I0.881 J-1.318
G01 X3.691 Y113.155
G02 X4.000 Y113.185 I0.309 J-1.555
G01 X59.500 Y113.185
G02 X59.809 Y113.155 I0.000 J-1.585
G01 X61.340 Y112.850
G02 X61.911 Y112.613 I-0.309 J-1.555
G01 X63.209 Y111.746
G02 X63.646 Y111.309 I-0.881 J-1.318
G01 X64.513 Y110.011
G02 X64.750 Y109.440 I-1.318 J-0.881
G01 X65.055 Y107.909
G02 X65.085 Y107.600 I-1.555 J-0.309
G01 X65.085 Y4.000
G02 X65.055 Y3.691 I-1.585 J-0.000
G01 X64.750 Y2.160
G02 X64.513 Y1.589 I-1.555 J0.309
G01 X63.646 Y0.291
G02 X63.209 Y-0.146 I-1.318 J0.881
G01 X61.911 Y-1.013
G02 X61.340 Y-1.250 I-0.881 J1.318
G01 X59.809 Y-1.555
G02 X59.500 Y-1.585 I-0.309 J1.555
G01 X4.000 Y-1.585
G02 X3.691 Y-1.555 I0.000 J1.585
G01 X2.160 Y-1.250
G02 X1.589 Y-1.013 I0.309 J1.555
G01 X0.291 Y-0.146
F20.0
G01 Z-2.600
F400.0
G02 X-0.146 Y0.291 I0.881 J1.318
G01 X-1.013 Y1.589
G02 X-1.250 Y2.160 I1.318 J0.881
G01 X-1.555 Y3.691
G02 X-1.585 Y4.000 I1.555 J0.309
G01 X-1.585 Y107.600
G02 X-1.555 Y107.909 I1.585 J0.000
G01 X-1.250 Y109.440
G02 X-1.013 Y110.011 I1.555 J-0.309
G01 X-0.146 Y111.309
G02 X0.291 Y111.746 I1.318 J-0.881
G01 X1.589 Y112.613
G02 X2.160 Y112.850 I0.881 J-1.318
G01 X3.691 Y113.155
G02 X4.000 Y113.185 I0.309 J-1.555
G01 X59.500 Y113.185
G02 X59.809 Y113.155 I0.000 J-1.585
G01 X61.340 Y112.850
G02 X61.911 Y112.613 I-0.309 J-1.555
G01 X63.209 Y111.746
G02 X63.646 Y111.309 I-0.881 J-1.318
G01 X64.513 Y110.011
G02 X64.750 Y109.440 I-1.318 J-0.881
G01 X65.055 Y107.909
G02 X65.085 Y107.600 I-1.555 J-0.309
G01 X65.085 Y4.000
G02 X65.055 Y3.691 I-1.585 J-0.000
G01 X64.750 Y2.160
G02 X64.513 Y1.589 I-1.555 J0.309
G01 X63.646 Y0.291
G02 X63.209 Y-0.146 I-1.318 J0.881
G01 X61.911 Y-1.013
G02 X61.340 Y-1.250 I-0.881 J1.318
G01 X59.809 Y-1.555
G02 X59.500 Y-1.585 I-0.309 J1.555
G01 X4.000 Y-1.585
G02 X3.691 Y-1.555 I0.000 J1.585
G01 X2.160 Y-1.250
G02 X1.589 Y-1.013 I0.309 J1.555
G01 X0.291 Y-0.146
F20.0
G01 Z-3.800
F400.0
G02 X-0.146 Y0.291 I0.881 J1.318
G01 X-1.013 Y1.589
G02 X-1.250 Y2.160 I1.318 J0.881
G01 X-1.555 Y3.691
G02 X-1.585 Y4.000 I1.555 J0.309
G01 X-1.585 Y107.600
G02 X-1.555 Y107.909 I1.585 J0.000
G01 X-1.250 Y109.440
G02 X-1.013 Y110.011 I1.555 J-0.309
G01 X-0.146 Y111.309
G02 X0.291 Y111.746 I1.318 J-0.881
G01 X1.589 Y112.613
G02 X2.160 Y112.850 I0.881 J-1.318
G01 X3.691 Y113.155
G02 X4.000 Y113.185 I0.309 J-1.555
G01 X59.500 Y113.185
G02 X59.809 Y113.155 I0.000 J-1.585
G01 X61.340 Y112.850
G02 X61.911 Y112.613 I-0.309 J-1.555
G01 X63.209 Y111.746
G02 X63.646 Y111.309 I-0.881 J-1.318
G01 X64.513 Y110.011
G02 X64.750 Y109.440 I-1.318 J-0.881
G01 X65.055 Y107.909
G02 X65.085 Y107.600 I-1.555 J-0.309
G01 X65.085 Y4.000
G02 X65.055 Y3.691 I-1.585 J-0.000
G01 X64.750 Y2.160
G02 X64.513 Y1.589 I-1.555 J0.309
G01 X63.646 Y0.291
G02 X63.209 Y-0.146 I-1.318 J0.881
G01 X61.911 Y-1.013
G02 X61.340 Y-1.250 I-0.881 J1.318
G01 X59.809 Y-1.555
G02 X59.500 Y-1.585 I-0.309 J1.555
G01 X4.000 Y-1.585
G02 X3.691 Y-1.555 I0.000 J1.585
G01 X2.160 Y-1.250
G02 X1.589 Y-1.013 I0.309 J1.555
G01 X0.291 Y-0.146
F20.0
G01 Z1.000
G00 Z5.000 
(Profile end)
G00 X0.000 Y0.000
M05 (Spindle off)
M02 (Program end)
%