(Generated with: DXF2GCODE, Version: Py3.5.1 PyQt5.6, Date: $Date$)
(Created from file: C:/Work/Keyboard/Things/Tablet_GKOS/Bottom_Cover.dxf)
(Time: Tue Sep  1 17:05:26 2020)
G21 (Units in millimeters)  G90 (Absolute programming) G17 (XY plane)
G92 X0.00 Y0.00 Z0.00 (Reset Zero)
G00 Z15.00
S12000
M03 (Spindle on)
G00 Z15.000 
(*** LAYER: 0 ***)
(S10000)
(* SHAPE Nr: 1 *)
G00 X21.895 Y25.895
(Profile start)
G00 Z1.000 
F20.0
G01 Z-1.300
F400.0
G01 X21.465 Y26.540
G01 X21.275 Y27.495
G01 X21.275 Y83.505
G01 X21.465 Y84.460
G01 X21.895 Y85.105
G01 X22.540 Y85.535
G01 X23.495 Y85.725
G01 X127.505 Y85.725
G01 X128.460 Y85.535
G01 X129.105 Y85.105
G01 X129.535 Y84.460
G01 X129.725 Y83.505
G01 X129.725 Y27.495
G01 X129.535 Y26.540
G01 X129.105 Y25.895
G01 X128.460 Y25.465
G01 X127.505 Y25.275
G01 X23.495 Y25.275
G01 X22.540 Y25.465
G01 X21.895 Y25.895
F20.0
G01 Z-2.600
F400.0
G01 X21.465 Y26.540
G01 X21.275 Y27.495
G01 X21.275 Y83.505
G01 X21.465 Y84.460
G01 X21.895 Y85.105
G01 X22.540 Y85.535
G01 X23.495 Y85.725
G01 X127.505 Y85.725
G01 X128.460 Y85.535
G01 X129.105 Y85.105
G01 X129.535 Y84.460
G01 X129.725 Y83.505
G01 X129.725 Y27.495
G01 X129.535 Y26.540
G01 X129.105 Y25.895
G01 X128.460 Y25.465
G01 X127.505 Y25.275
G01 X23.495 Y25.275
G01 X22.540 Y25.465
G01 X21.895 Y25.895
F20.0
G01 Z-3.800
F400.0
G01 X21.465 Y26.540
G01 X21.275 Y27.495
G01 X21.275 Y83.505
G01 X21.465 Y84.460
G01 X21.895 Y85.105
G01 X22.540 Y85.535
G01 X23.495 Y85.725
G01 X127.505 Y85.725
G01 X128.460 Y85.535
G01 X129.105 Y85.105
G01 X129.535 Y84.460
G01 X129.725 Y83.505
G01 X129.725 Y27.495
G01 X129.535 Y26.540
G01 X129.105 Y25.895
G01 X128.460 Y25.465
G01 X127.505 Y25.275
G01 X23.495 Y25.275
G01 X22.540 Y25.465
G01 X21.895 Y25.895
F20.0
G01 Z1.000
G00 Z5.000 
(Profile end)
(* SHAPE Nr: 0 *)
G00 X1.383 Y1.109
(Profile start)
G00 Z1.000 
G01 Z-1.300
F400.0
G02 X1.109 Y1.383 I1.253 J1.527
G01 X-0.010 Y2.747
G02 X-0.225 Y3.069 I1.527 J1.253
G01 X-1.057 Y4.625
G02 X-1.205 Y4.983 I1.742 J0.931
G01 X-1.717 Y6.671
G02 X-1.793 Y7.051 I1.890 J0.573
G01 X-1.965 Y8.806
G02 X-1.975 Y9.000 I1.965 J0.194
G01 X-1.975 Y47.655
G02 X-0.296 Y49.608 I1.975 J0.000
G01 X9.477 Y51.090
G01 X7.343 Y66.269
G02 X7.324 Y66.578 I1.956 J0.275
G01 X7.334 Y67.110
G02 X7.441 Y67.718 I1.975 J-0.034
G01 X7.614 Y68.221
G02 X7.904 Y68.767 I1.867 J-0.643
G01 X8.224 Y69.192
G02 X8.669 Y69.621 I1.577 J-1.189
G01 X9.105 Y69.926
G02 X9.660 Y70.197 I1.133 J-1.618
G01 X10.169 Y70.352
G02 X10.471 Y70.419 I0.577 J-1.889
G01 X11.288 Y70.534
G01 X8.915 Y87.418
G01 X8.098 Y87.303
G02 X7.789 Y87.285 I-0.275 J1.956
G01 X7.257 Y87.294
G02 X6.649 Y87.401 I0.034 J1.975
G01 X6.146 Y87.574
G02 X5.600 Y87.864 I0.643 J1.867
G01 X5.175 Y88.184
G02 X4.746 Y88.629 I1.189 J1.577
G01 X4.441 Y89.065
G02 X4.170 Y89.620 I1.618 J1.133
G01 X4.015 Y90.129
G02 X3.948 Y90.431 I1.889 J0.577
G01 X1.776 Y105.879
G02 X1.757 Y106.154 I1.956 J0.275
G01 X1.757 Y110.000
G02 X1.767 Y110.194 I1.975 J0.000
G01 X1.940 Y111.949
G02 X2.015 Y112.329 I1.965 J-0.194
G01 X2.527 Y114.017
G02 X2.676 Y114.375 I1.890 J-0.573
G01 X3.507 Y115.931
G02 X3.722 Y116.253 I1.742 J-0.931
G01 X4.842 Y117.617
G02 X5.115 Y117.891 I1.527 J-1.253
G01 X6.479 Y119.010
G02 X6.801 Y119.225 I1.253 J-1.527
G01 X8.357 Y120.057
G02 X8.715 Y120.205 I0.931 J-1.742
G01 X10.403 Y120.717
G02 X10.783 Y120.793 I0.573 J-1.890
G01 X12.539 Y120.966
G02 X12.732 Y120.975 I0.194 J-1.965
G01 X138.268 Y120.975
G02 X138.461 Y120.966 I0.000 J-1.975
G01 X140.217 Y120.793
G02 X140.597 Y120.717 I-0.194 J-1.965
G01 X142.285 Y120.205
G02 X142.643 Y120.057 I-0.573 J-1.890
G01 X144.199 Y119.225
G02 X144.521 Y119.010 I-0.931 J-1.742
G01 X145.885 Y117.891
G02 X146.158 Y117.617 I-1.253 J-1.527
G01 X147.278 Y116.253
G02 X147.493 Y115.931 I-1.527 J-1.253
G01 X148.324 Y114.375
G02 X148.473 Y114.017 I-1.742 J-0.931
G01 X148.985 Y112.329
G02 X149.060 Y111.949 I-1.890 J-0.573
G01 X149.233 Y110.194
G02 X149.243 Y110.000 I-1.965 J-0.194
G01 X149.243 Y106.154
G02 X149.224 Y105.879 I-1.975 J0.000
G01 X147.052 Y90.431
G02 X146.985 Y90.129 I-1.956 J0.275
G01 X146.830 Y89.620
G02 X146.559 Y89.065 I-1.889 J0.577
G01 X146.254 Y88.629
G02 X145.825 Y88.184 I-1.618 J1.133
G01 X145.400 Y87.864
G02 X144.854 Y87.574 I-1.189 J1.577
G01 X144.351 Y87.401
G02 X143.743 Y87.294 I-0.643 J1.867
G01 X143.211 Y87.285
G02 X142.902 Y87.303 I-0.034 J1.975
G01 X142.085 Y87.418
G01 X139.712 Y70.534
G01 X140.529 Y70.419
G02 X140.831 Y70.352 I-0.275 J-1.956
G01 X141.340 Y70.197
G02 X141.895 Y69.926 I-0.577 J-1.889
G01 X142.331 Y69.621
G02 X142.776 Y69.192 I-1.133 J-1.618
G01 X143.096 Y68.767
G02 X143.386 Y68.221 I-1.577 J-1.189
G01 X143.559 Y67.718
G02 X143.666 Y67.110 I-1.867 J-0.643
G01 X143.676 Y66.578
G02 X143.657 Y66.269 I-1.975 J-0.034
G01 X141.523 Y51.090
G01 X151.296 Y49.608
G02 X152.975 Y47.655 I-0.296 J-1.953
G01 X152.975 Y9.000
G02 X152.965 Y8.806 I-1.975 J0.000
G01 X152.793 Y7.051
G02 X152.717 Y6.671 I-1.965 J0.194
G01 X152.205 Y4.983
G02 X152.057 Y4.625 I-1.890 J0.573
G01 X151.225 Y3.069
G02 X151.010 Y2.747 I-1.742 J0.931
G01 X149.891 Y1.383
G02 X149.617 Y1.109 I-1.527 J1.253
G01 X148.253 Y-0.010
G02 X147.931 Y-0.225 I-1.253 J1.527
G01 X146.375 Y-1.057
G02 X146.017 Y-1.205 I-0.931 J1.742
G01 X144.329 Y-1.717
G02 X143.949 Y-1.793 I-0.573 J1.890
G01 X142.194 Y-1.965
G02 X142.000 Y-1.975 I-0.194 J1.965
G01 X9.000 Y-1.975
G02 X8.806 Y-1.965 I0.000 J1.975
G01 X7.051 Y-1.793
G02 X6.671 Y-1.717 I0.194 J1.965
G01 X4.983 Y-1.205
G02 X4.625 Y-1.057 I0.573 J1.890
G01 X3.069 Y-0.225
G02 X2.747 Y-0.010 I0.931 J1.742
G01 X1.383 Y1.109
F20.0
G01 Z-2.600
F400.0
G02 X1.109 Y1.383 I1.253 J1.527
G01 X-0.010 Y2.747
G02 X-0.225 Y3.069 I1.527 J1.253
G01 X-1.057 Y4.625
G02 X-1.205 Y4.983 I1.742 J0.931
G01 X-1.717 Y6.671
G02 X-1.793 Y7.051 I1.890 J0.573
G01 X-1.965 Y8.806
G02 X-1.975 Y9.000 I1.965 J0.194
G01 X-1.975 Y47.655
G02 X-0.296 Y49.608 I1.975 J0.000
G01 X9.477 Y51.090
G01 X7.343 Y66.269
G02 X7.324 Y66.578 I1.956 J0.275
G01 X7.334 Y67.110
G02 X7.441 Y67.718 I1.975 J-0.034
G01 X7.614 Y68.221
G02 X7.904 Y68.767 I1.867 J-0.643
G01 X8.224 Y69.192
G02 X8.669 Y69.621 I1.577 J-1.189
G01 X9.105 Y69.926
G02 X9.660 Y70.197 I1.133 J-1.618
G01 X10.169 Y70.352
G02 X10.471 Y70.419 I0.577 J-1.889
G01 X11.288 Y70.534
G01 X8.915 Y87.418
G01 X8.098 Y87.303
G02 X7.789 Y87.285 I-0.275 J1.956
G01 X7.257 Y87.294
G02 X6.649 Y87.401 I0.034 J1.975
G01 X6.146 Y87.574
G02 X5.600 Y87.864 I0.643 J1.867
G01 X5.175 Y88.184
G02 X4.746 Y88.629 I1.189 J1.577
G01 X4.441 Y89.065
G02 X4.170 Y89.620 I1.618 J1.133
G01 X4.015 Y90.129
G02 X3.948 Y90.431 I1.889 J0.577
G01 X1.776 Y105.879
G02 X1.757 Y106.154 I1.956 J0.275
G01 X1.757 Y110.000
G02 X1.767 Y110.194 I1.975 J0.000
G01 X1.940 Y111.949
G02 X2.015 Y112.329 I1.965 J-0.194
G01 X2.527 Y114.017
G02 X2.676 Y114.375 I1.890 J-0.573
G01 X3.507 Y115.931
G02 X3.722 Y116.253 I1.742 J-0.931
G01 X4.842 Y117.617
G02 X5.115 Y117.891 I1.527 J-1.253
G01 X6.479 Y119.010
G02 X6.801 Y119.225 I1.253 J-1.527
G01 X8.357 Y120.057
G02 X8.715 Y120.205 I0.931 J-1.742
G01 X10.403 Y120.717
G02 X10.783 Y120.793 I0.573 J-1.890
G01 X12.539 Y120.966
G02 X12.732 Y120.975 I0.194 J-1.965
G01 X138.268 Y120.975
G02 X138.461 Y120.966 I0.000 J-1.975
G01 X140.217 Y120.793
G02 X140.597 Y120.717 I-0.194 J-1.965
G01 X142.285 Y120.205
G02 X142.643 Y120.057 I-0.573 J-1.890
G01 X144.199 Y119.225
G02 X144.521 Y119.010 I-0.931 J-1.742
G01 X145.885 Y117.891
G02 X146.158 Y117.617 I-1.253 J-1.527
G01 X147.278 Y116.253
G02 X147.493 Y115.931 I-1.527 J-1.253
G01 X148.324 Y114.375
G02 X148.473 Y114.017 I-1.742 J-0.931
G01 X148.985 Y112.329
G02 X149.060 Y111.949 I-1.890 J-0.573
G01 X149.233 Y110.194
G02 X149.243 Y110.000 I-1.965 J-0.194
G01 X149.243 Y106.154
G02 X149.224 Y105.879 I-1.975 J0.000
G01 X147.052 Y90.431
G02 X146.985 Y90.129 I-1.956 J0.275
G01 X146.830 Y89.620
G02 X146.559 Y89.065 I-1.889 J0.577
G01 X146.254 Y88.629
G02 X145.825 Y88.184 I-1.618 J1.133
G01 X145.400 Y87.864
G02 X144.854 Y87.574 I-1.189 J1.577
G01 X144.351 Y87.401
G02 X143.743 Y87.294 I-0.643 J1.867
G01 X143.211 Y87.285
G02 X142.902 Y87.303 I-0.034 J1.975
G01 X142.085 Y87.418
G01 X139.712 Y70.534
G01 X140.529 Y70.419
G02 X140.831 Y70.352 I-0.275 J-1.956
G01 X141.340 Y70.197
G02 X141.895 Y69.926 I-0.577 J-1.889
G01 X142.331 Y69.621
G02 X142.776 Y69.192 I-1.133 J-1.618
G01 X143.096 Y68.767
G02 X143.386 Y68.221 I-1.577 J-1.189
G01 X143.559 Y67.718
G02 X143.666 Y67.110 I-1.867 J-0.643
G01 X143.676 Y66.578
G02 X143.657 Y66.269 I-1.975 J-0.034
G01 X141.523 Y51.090
G01 X151.296 Y49.608
G02 X152.975 Y47.655 I-0.296 J-1.953
G01 X152.975 Y9.000
G02 X152.965 Y8.806 I-1.975 J0.000
G01 X152.793 Y7.051
G02 X152.717 Y6.671 I-1.965 J0.194
G01 X152.205 Y4.983
G02 X152.057 Y4.625 I-1.890 J0.573
G01 X151.225 Y3.069
G02 X151.010 Y2.747 I-1.742 J0.931
G01 X149.891 Y1.383
G02 X149.617 Y1.109 I-1.527 J1.253
G01 X148.253 Y-0.010
G02 X147.931 Y-0.225 I-1.253 J1.527
G01 X146.375 Y-1.057
G02 X146.017 Y-1.205 I-0.931 J1.742
G01 X144.329 Y-1.717
G02 X143.949 Y-1.793 I-0.573 J1.890
G01 X142.194 Y-1.965
G02 X142.000 Y-1.975 I-0.194 J1.965
G01 X9.000 Y-1.975
G02 X8.806 Y-1.965 I0.000 J1.975
G01 X7.051 Y-1.793
G02 X6.671 Y-1.717 I0.194 J1.965
G01 X4.983 Y-1.205
G02 X4.625 Y-1.057 I0.573 J1.890
G01 X3.069 Y-0.225
G02 X2.747 Y-0.010 I0.931 J1.742
G01 X1.383 Y1.109
F20.0
G01 Z-3.800
F400.0
G02 X1.109 Y1.383 I1.253 J1.527
G01 X-0.010 Y2.747
G02 X-0.225 Y3.069 I1.527 J1.253
G01 X-1.057 Y4.625
G02 X-1.205 Y4.983 I1.742 J0.931
G01 X-1.717 Y6.671
G02 X-1.793 Y7.051 I1.890 J0.573
G01 X-1.965 Y8.806
G02 X-1.975 Y9.000 I1.965 J0.194
G01 X-1.975 Y47.655
G02 X-0.296 Y49.608 I1.975 J0.000
G01 X9.477 Y51.090
G01 X7.343 Y66.269
G02 X7.324 Y66.578 I1.956 J0.275
G01 X7.334 Y67.110
G02 X7.441 Y67.718 I1.975 J-0.034
G01 X7.614 Y68.221
G02 X7.904 Y68.767 I1.867 J-0.643
G01 X8.224 Y69.192
G02 X8.669 Y69.621 I1.577 J-1.189
G01 X9.105 Y69.926
G02 X9.660 Y70.197 I1.133 J-1.618
G01 X10.169 Y70.352
G02 X10.471 Y70.419 I0.577 J-1.889
G01 X11.288 Y70.534
G01 X8.915 Y87.418
G01 X8.098 Y87.303
G02 X7.789 Y87.285 I-0.275 J1.956
G01 X7.257 Y87.294
G02 X6.649 Y87.401 I0.034 J1.975
G01 X6.146 Y87.574
G02 X5.600 Y87.864 I0.643 J1.867
G01 X5.175 Y88.184
G02 X4.746 Y88.629 I1.189 J1.577
G01 X4.441 Y89.065
G02 X4.170 Y89.620 I1.618 J1.133
G01 X4.015 Y90.129
G02 X3.948 Y90.431 I1.889 J0.577
G01 X1.776 Y105.879
G02 X1.757 Y106.154 I1.956 J0.275
G01 X1.757 Y110.000
G02 X1.767 Y110.194 I1.975 J0.000
G01 X1.940 Y111.949
G02 X2.015 Y112.329 I1.965 J-0.194
G01 X2.527 Y114.017
G02 X2.676 Y114.375 I1.890 J-0.573
G01 X3.507 Y115.931
G02 X3.722 Y116.253 I1.742 J-0.931
G01 X4.842 Y117.617
G02 X5.115 Y117.891 I1.527 J-1.253
G01 X6.479 Y119.010
G02 X6.801 Y119.225 I1.253 J-1.527
G01 X8.357 Y120.057
G02 X8.715 Y120.205 I0.931 J-1.742
G01 X10.403 Y120.717
G02 X10.783 Y120.793 I0.573 J-1.890
G01 X12.539 Y120.966
G02 X12.732 Y120.975 I0.194 J-1.965
G01 X138.268 Y120.975
G02 X138.461 Y120.966 I0.000 J-1.975
G01 X140.217 Y120.793
G02 X140.597 Y120.717 I-0.194 J-1.965
G01 X142.285 Y120.205
G02 X142.643 Y120.057 I-0.573 J-1.890
G01 X144.199 Y119.225
G02 X144.521 Y119.010 I-0.931 J-1.742
G01 X145.885 Y117.891
G02 X146.158 Y117.617 I-1.253 J-1.527
G01 X147.278 Y116.253
G02 X147.493 Y115.931 I-1.527 J-1.253
G01 X148.324 Y114.375
G02 X148.473 Y114.017 I-1.742 J-0.931
G01 X148.985 Y112.329
G02 X149.060 Y111.949 I-1.890 J-0.573
G01 X149.233 Y110.194
G02 X149.243 Y110.000 I-1.965 J-0.194
G01 X149.243 Y106.154
G02 X149.224 Y105.879 I-1.975 J0.000
G01 X147.052 Y90.431
G02 X146.985 Y90.129 I-1.956 J0.275
G01 X146.830 Y89.620
G02 X146.559 Y89.065 I-1.889 J0.577
G01 X146.254 Y88.629
G02 X145.825 Y88.184 I-1.618 J1.133
G01 X145.400 Y87.864
G02 X144.854 Y87.574 I-1.189 J1.577
G01 X144.351 Y87.401
G02 X143.743 Y87.294 I-0.643 J1.867
G01 X143.211 Y87.285
G02 X142.902 Y87.303 I-0.034 J1.975
G01 X142.085 Y87.418
G01 X139.712 Y70.534
G01 X140.529 Y70.419
G02 X140.831 Y70.352 I-0.275 J-1.956
G01 X141.340 Y70.197
G02 X141.895 Y69.926 I-0.577 J-1.889
G01 X142.331 Y69.621
G02 X142.776 Y69.192 I-1.133 J-1.618
G01 X143.096 Y68.767
G02 X143.386 Y68.221 I-1.577 J-1.189
G01 X143.559 Y67.718
G02 X143.666 Y67.110 I-1.867 J-0.643
G01 X143.676 Y66.578
G02 X143.657 Y66.269 I-1.975 J-0.034
G01 X141.523 Y51.090
G01 X151.296 Y49.608
G02 X152.975 Y47.655 I-0.296 J-1.953
G01 X152.975 Y9.000
G02 X152.965 Y8.806 I-1.975 J0.000
G01 X152.793 Y7.051
G02 X152.717 Y6.671 I-1.965 J0.194
G01 X152.205 Y4.983
G02 X152.057 Y4.625 I-1.890 J0.573
G01 X151.225 Y3.069
G02 X151.010 Y2.747 I-1.742 J0.931
G01 X149.891 Y1.383
G02 X149.617 Y1.109 I-1.527 J1.253
G01 X148.253 Y-0.010
G02 X147.931 Y-0.225 I-1.253 J1.527
G01 X146.375 Y-1.057
G02 X146.017 Y-1.205 I-0.931 J1.742
G01 X144.329 Y-1.717
G02 X143.949 Y-1.793 I-0.573 J1.890
G01 X142.194 Y-1.965
G02 X142.000 Y-1.975 I-0.194 J1.965
G01 X9.000 Y-1.975
G02 X8.806 Y-1.965 I0.000 J1.975
G01 X7.051 Y-1.793
G02 X6.671 Y-1.717 I0.194 J1.965
G01 X4.983 Y-1.205
G02 X4.625 Y-1.057 I0.573 J1.890
G01 X3.069 Y-0.225
G02 X2.747 Y-0.010 I0.931 J1.742
G01 X1.383 Y1.109
F20.0
G01 Z1.000
G00 Z5.000 
(Profile end)
G00 X0.000 Y0.000
M05 (Spindle off)
M02 (Program end)
%