(Generated with: DXF2GCODE, Version: Py3.5.1 PyQt5.6, Date: $Date$)
(Created from file: C:/Work/Keyboard/Things/Tablet_GKOS/Top_Cover.dxf)
(Time: Sat Sep  5 12:58:05 2020)
G21 (Units in millimeters)  G90 (Absolute programming) G17 (XY plane)
G92 X0.00 Y0.00 Z0.00 (Reset Zero)
G00 Z15.00
S12000
M03 (Spindle on)
G00 Z15.000 
(*** LAYER: 0 ***)
(S6000)
(* SHAPE Nr: 0 *)
G00 X1.631 Y1.411
(Profile start)
G00 Z1.000 
F20.0
G01 Z-1.500
F400.0
G02 X1.411 Y1.631 I1.006 J1.225
G01 X0.292 Y2.994
G02 X0.119 Y3.253 I1.225 J1.006
G01 X-0.713 Y4.809
G02 X-0.832 Y5.096 I1.398 J0.747
G01 X-1.344 Y6.784
G02 X-1.404 Y7.089 I1.517 J0.460
G01 X-1.577 Y8.845
G02 X-1.585 Y9.000 I1.577 J0.155
G01 X-1.585 Y208.000
G02 X-1.577 Y208.155 I1.585 J-0.000
G01 X-1.404 Y209.911
G02 X-1.344 Y210.216 I1.577 J-0.155
G01 X-0.832 Y211.904
G02 X-0.713 Y212.191 I1.517 J-0.460
G01 X0.119 Y213.747
G02 X0.292 Y214.006 I1.398 J-0.747
G01 X1.411 Y215.369
G02 X1.631 Y215.589 I1.225 J-1.006
G01 X2.994 Y216.708
G02 X3.253 Y216.881 I1.006 J-1.225
G01 X4.809 Y217.713
G02 X5.096 Y217.832 I0.747 J-1.398
G01 X6.784 Y218.344
G02 X7.089 Y218.404 I0.460 J-1.517
G01 X8.845 Y218.577
G02 X9.000 Y218.585 I0.155 J-1.577
G01 X117.000 Y218.585
G02 X117.155 Y218.577 I0.000 J-1.585
G01 X118.911 Y218.404
G02 X119.216 Y218.344 I-0.155 J-1.577
G01 X120.904 Y217.832
G02 X121.191 Y217.713 I-0.460 J-1.517
G01 X122.747 Y216.881
G02 X123.006 Y216.708 I-0.747 J-1.398
G01 X124.369 Y215.589
G02 X124.589 Y215.369 I-1.006 J-1.225
G01 X125.708 Y214.006
G02 X125.881 Y213.747 I-1.225 J-1.006
G01 X126.713 Y212.191
G02 X126.832 Y211.904 I-1.398 J-0.747
G01 X127.344 Y210.216
G02 X127.404 Y209.911 I-1.517 J-0.460
G01 X127.577 Y208.155
G02 X127.585 Y208.000 I-1.577 J-0.155
G01 X127.585 Y9.000
G02 X127.577 Y8.845 I-1.585 J-0.000
G01 X127.404 Y7.089
G02 X127.344 Y6.784 I-1.577 J0.155
G01 X126.832 Y5.096
G02 X126.713 Y4.809 I-1.517 J0.460
G01 X125.881 Y3.253
G02 X125.708 Y2.994 I-1.398 J0.747
G01 X124.589 Y1.631
G02 X124.369 Y1.411 I-1.225 J1.006
G01 X123.006 Y0.292
G02 X122.747 Y0.119 I-1.006 J1.225
G01 X121.191 Y-0.713
G02 X120.904 Y-0.832 I-0.747 J1.398
G01 X119.216 Y-1.344
G02 X118.911 Y-1.404 I-0.460 J1.517
G01 X117.155 Y-1.577
G02 X117.000 Y-1.585 I-0.155 J1.577
G01 X9.000 Y-1.585
G02 X8.845 Y-1.577 I-0.000 J1.585
G01 X7.089 Y-1.404
G02 X6.784 Y-1.344 I0.155 J1.577
G01 X5.096 Y-0.832
G02 X4.809 Y-0.713 I0.460 J1.517
G01 X3.253 Y0.119
G02 X2.994 Y0.292 I0.747 J1.398
G01 X1.631 Y1.411
F20.0
G01 Z1.000
G00 Z5.000 
(Profile end)
G00 X0.000 Y0.000
M05 (Spindle off)
M02 (Program end)
%